ix/security-user_twotone.svg

<svg viewBox="0 0 24 24" fill="none" xmlns="http://www.w3.org/2000/svg" height="1em" width="1em">
  <path d="M10.4901 2.23006L5.50015 4.10005C4.35015 4.53005 3.41016 5.89004 3.41016 7.12004V14.55C3.41016 15.73 4.19017 17.28 5.14017 17.99L9.44016 21.2001C10.8502 22.2601 13.1701 22.2601 14.5801 21.2001L18.8802 17.99C19.8302 17.28 20.6101 15.73 20.6101 14.55V7.12004C20.6101 5.89004 19.6701 4.53005 18.5201 4.10005L13.5302 2.23006C12.6802 1.92006 11.3201 1.92006 10.4901 2.23006Z" stroke="#292D32" stroke-width="1.5" stroke-linecap="round" stroke-linejoin="round"/>
  <path opacity="0.4" d="M11.9997 10.9199C11.9597 10.9199 11.9097 10.9199 11.8697 10.9199C10.9297 10.8899 10.1797 10.1099 10.1797 9.15991C10.1797 8.18991 10.9697 7.3999 11.9397 7.3999C12.9097 7.3999 13.6997 8.18991 13.6997 9.15991C13.6897 10.1199 12.9397 10.8899 11.9997 10.9199Z" stroke="#292D32" stroke-width="1.5" stroke-linecap="round" stroke-linejoin="round"/>
  <path opacity="0.4" d="M10.0091 13.7199C9.04906 14.3599 9.04906 15.4099 10.0091 16.0498C11.0991 16.7799 12.8891 16.7799 13.9791 16.0498C14.9391 15.4099 14.9391 14.3599 13.9791 13.7199C12.8991 12.9899 11.1091 12.9899 10.0091 13.7199Z" stroke="#292D32" stroke-width="1.5" stroke-linecap="round" stroke-linejoin="round"/>
</svg>

<svg viewBox="0 0 24 24" fill="none" xmlns="http://www.w3.org/2000/svg" height="1em" width="1em">
  <path d="M10.49 2.23 5.5 4.1c-1.15.43-2.09 1.79-2.09 3.02v7.43c0 1.18.78 2.73 1.73 3.44l4.3 3.21c1.41 1.06 3.73 1.06 5.14 0l4.3-3.21c.95-.71 1.73-2.26 1.73-3.44V7.12c0-1.23-.94-2.59-2.09-3.02l-4.99-1.87c-.85-.31-2.21-.31-3.04 0Z" stroke="#292D32" stroke-width="1.5" stroke-linecap="round" stroke-linejoin="round"/>
  <path opacity=".4" d="M12 10.92h-.13c-.94-.03-1.69-.81-1.69-1.76 0-.97.79-1.76 1.76-1.76s1.76.79 1.76 1.76c-.01.96-.76 1.73-1.7 1.76Zm-1.99 2.8c-.96.64-.96 1.69 0 2.33 1.09.73 2.88.73 3.97 0 .96-.64.96-1.69 0-2.33-1.08-.73-2.87-.73-3.97 0Z" stroke="#292D32" stroke-width="1.5" stroke-linecap="round" stroke-linejoin="round"/>
</svg>
